!!!!SEGMENT: pl-wn--sd-xvi-o-278_bazylik-cyprian--kancjonal-zamoyskich-psalm-cxxix-de-profundis-clamavi-z-glebokosci-grzechow-moich.krn
!!!cenid: 15xx:833
!!!COM: Bazylik, Cyprian
!!!COM-rismid: pe40000234
!!!CDT: ~1535-~1600
!!!CNT: Polish
!!!GTL: Kancjonał Zamoyskich
!!!OTL: Psalm CXXIX De profundis clamavi/Z głębokości grzechów moich
!!!PDT: 1558
!!!AGN:
!!!SMS-siglum: PL-Wn
!!!SMS-shelfmark: SD XVI.O.278
!!!SMS-shelfwork: G
!!!SMS-variant:
!!!SMS-altvar:
!!!NIFC-rismid: 990004247
!!!URL-scan: https://polona.pl/item/psalm-cxxix-de-profundis-clamaui-ad-te-domine-argumentum-w-thym-psalmie-duch-swiethy,MTE3MTYxNQ/4/#info:metadata
!!!ONB-nifc: UWAGA: proszę zapisywać tylko teksty występujące bezpośrednio pod nutami
!!!AIN: 1 alto 1 bass 1 soprn 1 tenor
!!!key: e:phr
**kern	**text	**text	**kern	**text	**text	**kern	**text	**text	**kern	**text	**text
*part4	*part4	*part4	*part3	*part3	*part3	*part2	*part2	*part2	*part1	*part1	*part1
*staff4	*staff4	*staff4	*staff3	*staff3	*staff3	*staff2	*staff2	*staff2	*staff1	*staff1	*staff1
*I"BASS.	*	*	*I"TENOR.	*	*	*I"ALT.	*	*	*I"CANTVS.	*	*
*I'B	*	*	*I'T	*	*	*I'A	*	*	*I'S	*	*
*ICvox	*	*	*ICvox	*	*	*ICvox	*	*	*ICvox	*	*
*Ibass	*	*	*Itenor	*	*	*Ialto	*	*	*Isoprn	*	*
*clefF4	*	*	*clefC4	*	*	*clefC3	*	*	*clefC1	*	*
*k[]	*	*	*k[]	*	*	*k[]	*	*	*k[]	*	*
*e:phr	*	*	*e:phr	*	*	*e:phr	*	*	*e:phr	*	*
*M2/1	*	*	*M2/1	*	*	*M2/1	*	*	*M2/1	*	*
*met(C|)	*	*	*met(C|)	*	*	*met(C|)	*	*	*met(C|)	*	*
=1	=1	=1	=1	=1	=1	=1	=1	=1	=1	=1	=1
0E	Z Głę-	Wy-	0B	Z Głę-	Wy-	0e	Z Głę-	Wy-	0g	Z Głę-	Wy-
=2	=2	=2	=2	=2	=2	=2	=2	=2	=2	=2	=2
2.C/	-bo-	-ſłu-	1E	-bo-	-ſłu-	1e	-bo-	-ſłu-	1cc	-bo-	-ſłu-
4D/	-ko-	.	.	.	.	.	.	.	.	.	.
1E	-ſci	-chay	1B	-ko-	-chay	1e	-ko-	.	2b\	-ko-	.
.	.	.	.	.	.	.	.	.	2g/	.	-chay-
=3	=3	=3	=3	=3	=3	=3	=3	=3	=3	=3	=3
2AA/	grze-	mo-	1c	-ſci	mo-	1.e	-ſci	-chay	2a\	-ſci	.
1A	.	.	.	.	.	.	.	.	2.e/	grze-	-mo-
.	.	.	1B	grze-	-ye	.	.	.	.	.	.
.	.	.	.	.	.	.	.	.	4f/	.	.
2G\	.	-ye	.	.	.	2.e\	grze-	.	2.g/	-chow	-ye
=4	=4	=4	=4	=4	=4	=4	=4	=4	=4	=4	=4
1E	-chow	wo-	1G	-chow	wo-	.	.	.	.	.	.
.	.	.	.	.	.	4d\	.	mo-	4f/	.	.
.	.	.	.	.	.	2.c\	.	.	1e	.	wo-
1F	.	.	1A	mo-	-ła-	.	.	.	.	.	.
.	.	.	.	.	.	4B/	-chow	-ye	.	.	.
.	.	.	.	.	.	1A	.	.	2d/	.	.
=5	=5	=5	=5	=5	=5	=5	=5	=5	=5	=5	=5
!	!	!	!LO:SIC:v:t=custos B	!	!	!	!	!	!	!	!
1.E	mo-	-ła-	1B	-ych/	-nye/	.	.	.	2.e/	mo-	-ła-
.	.	.	.	.	.	4G/	.	wo-	.	.	.
!	!	!	!	!	!	!	!	!	!LO:SIC:v:t=custos g	!	!
.	.	.	.	.	.	4A/	mo-	-ła-	4f/	-ych/	-nie/
!	!	!	!	!	!	!LO:TX:t=P:problem:błędny kustosz	!	!	!	!	!
!	!	!	!	!	!	!LO:SIC:v:t=custos c	!	!	!LO:LB:g=original	!	!
!	!	!	!LO:LB:g=original	!	!	!	!	!	!	!	!
.	.	.	2r	.	.	2B/	-ych/	-nie/	1g	wo-	po-
!LO:SIC:v:t=custos A	!	!	!	!	!	!	!	!	!	!	!
!	!	!	!	!	!	!LO:LB:g=original	!	!	!	!	!
2E\	-ych/	-nie,	2B\	Wo-	Po-	1e	wo-	po-	.	.	.
!LO:LB:g=original	!	!	!	!	!	!	!	!	!	!	!
=6	=6	=6	=6	=6	=6	=6	=6	=6	=6	=6	=6
1A	wo-	Po-	1c	-łam	-kła-	.	.	.	2a/	.	-kła-
.	.	.	.	.	.	2f\	-łam	-kła-	1cc	-łam	-dam
1G	-łam	-kła-	1d	kto-	-dam	2.g\	kto-	-dam	.	.	.
.	.	.	.	.	.	.	.	.	2b\	.	.
.	.	.	.	.	.	4f\	.	.	.	.	.
=7	=7	=7	=7	=7	=7	=7	=7	=7	=7	=7	=7
2C/	.	-dam	1c	-bye	w to-	2e\	-bie	.	2cc\	kto-	.
2.F\	kto-	.	.	.	.	2f\	.	w to-	2.a\	-bie	w to-
.	.	.	1A	mi-	-bye	2c/	.	.	.	.	.
4E/	.	.	.	.	.	.	.	.	4g/	.	.
2D/	-bie	w to-	.	.	.	2d\	mi-	-bie	2.f/	mi-	-bie
=8	=8	=8	=8	=8	=8	=8	=8	=8	=8	=8	=8
2E\	mi-	-bye	1G	-ły	u-	2B/	-ły	.	.	.	.
.	.	.	.	.	.	.	.	.	4e/	-ły	u-
2C/	-łi	u-	.	.	.	2c/	.	u-	1e	.	-fa-
1D	pa-	-fa-	1F	Pa-	-fa-	2A/	Pa-	-fa-	.	.	.
.	.	.	.	.	.	2B/	.	-nie.	2d/	pa-	-nie.
=9	=9	=9	=9	=9	=9	=9	=9	=9	=9	=9	=9
*yyM1/2	*	*	*yyM1/2	*	*	*yyM1/2	*	*	*yyM1/2	*	*
!	!	!	!LO:TX:b:t=Re.	!	!	!LO:SIC:v:t=custos B	!	!	!LO:TX:b:t=Re.	!	!
!LO:SIC:v:t=custos E	!	!	!LO:SIC:v:t=custos A	!	!	!LO:TX:b:t=Re.	!	!	!LO:SIC:v:t=custos g	!	!
2AA/	-nie/	-nie,	1E	-nie/	-nye.	2c/	-nye.	.	2e/	-nie.	.
!	!	!	!	!	!	!	!	!	!LO:LB:g=original	!	!
!LO:LB:g=original	!	!	!LO:LB:g=original	!	!	!LO:LB:g=original	!	!	!	!	!
=10:|!|:	=10:|!|:	=10:|!|:	=10:|!|:	=10:|!|:	=10:|!|:	=10:|!|:	=10:|!|:	=10:|!|:	=10:|!|:	=10:|!|:	=10:|!|:
*yyM2/1	*	*	*yyM2/1	*	*	*yyM2/1	*	*	*yyM2/1	*	*
2E\	Skłoń-	.	.	.	.	2B/	Skłoń	.	1g	Skłoń	.
2D/	.	.	2r	.	.	2d\	.	.	.	.	.
2F\	.	.	2A/	Skłoń	.	4c/	.	.	2f/	.	.
.	.	.	.	.	.	4d/	.	.	.	.	.
2.E\	-u-	.	1G	u-	.	2.e\	u-	.	2.g/	.	.
=11	=11	=11	=11	=11	=11	=11	=11	=11	=11	=11	=11
.	.	.	.	.	.	.	.	.	.	.	.
4D/	.	.	.	.	.	4f\	.	.	4f/	u-	.
2C/	-ſſy	.	1c	-ſſy	.	2g\	-ſſy	.	2e/	-ſſy	.
2F\	.	.	.	.	.	2f\	.	.	1a	mi-	.
2G\	my-	.	1B	mi-	.	1e	mi-	.	.	.	.
=12	=12	=12	=12	=12	=12	=12	=12	=12	=12	=12	=12
2E\	.	.	.	.	.	.	.	.	2g/	.	.
2F\	-ło-	.	2A\	-ło-	.	2c/	-ło-	.	2a\	-ło-	.
1G	.	.	1d	-ſyer-	.	2.g\	-ſier-	.	1b	-ſier-	.
.	.	.	.	.	.	4f\	.	.	.	.	.
=13	=13	=13	=13	=13	=13	=13	=13	=13	=13	=13	=13
2A\	-ſier-	.	2c\	-ne	.	4e\	-ne	.	1a	.	.
.	.	.	.	.	.	4d\	.	.	.	.	.
!	!	!	!	!	!	!LO:SIC:v:t=custos c	!	!	!	!	!
1E	-ne	.	1B	ſwo-	.	1e	ſwo-	.	.	.	.
.	.	.	.	.	.	.	.	.	2g/	-ne	.
!	!	!	!LO:SIC:v:t=custos c	!	!	!	!	!	!	!	!
!	!	!	!	!	!	!LO:LB:g=original	!	!	!	!	!
1.AA	ſwo-	.	1A	-ye/	.	1.c	-ye/	.	2.a\	ſwo-	.
!	!	!	!LO:LB:g=original	!	!	!	!	!	!	!	!
=14	=14	=14	=14	=14	=14	=14	=14	=14	=14	=14	=14
.	.	.	.	.	.	.	.	.	.	.	.
.	.	.	.	.	.	.	.	.	4g/	.	.
!	!	!	!	!	!	!	!	!	!LO:SIC:v:t=custos e	!	!
.	.	.	2r	.	.	.	.	.	2f/	-ye/	.
!LO:SIC:v:t=custos G	!	!	!	!	!	!	!	!	!	!	!
!	!	!	!	!	!	!	!	!	!LO:LB:g=original	!	!
1A	-ye/	.	2c\	Pom-	.	2A/	pom-	.	4e/	Pom-	.
.	.	.	.	.	.	.	.	.	4f/	.	.
.	.	.	1B	-ni	.	1d	.	.	4g\	.	.
.	.	.	.	.	.	.	.	.	4a\	.	.
!LO:LB:g=original	!	!	!	!	!	!	!	!	!	!	!
=15	=15	=15	=15	=15	=15	=15	=15	=15	=15	=15	=15
2G\	Pom-	.	.	.	.	.	.	.	2b\	-mi	.
1A	-ni	.	1c	na	.	2c\	-ni	.	2.a\	na	.
.	.	.	.	.	.	2e\	na	.	.	.	.
.	.	.	.	.	.	.	.	.	4g/	.	.
1D	na	.	1d	o-	.	2d\	.	.	1f	o-	.
=16	=16	=16	=16	=16	=16	=16	=16	=16	=16	=16	=16
.	.	.	.	.	.	2A/	o-	.	.	.	.
1E	.	.	1G	-byet-	.	1B	-biet-	.	2.e/	-bie-	.
.	.	.	.	.	.	.	.	.	4f/	-tni-	.
2E\	ob-	.	2B\	-ni-	.	1e	-ni-	.	4g\	-ce	.
.	.	.	.	.	.	.	.	.	4a\	.	.
=17	=17	=17	=17	=17	=17	=17	=17	=17	=17	=17	=17
2C/	-yet-	.	2c\	-ce	.	.	.	.	1g	two-	.
1D	-ny-	.	1A	two-	.	1d	-ce	.	.	.	.
.	.	.	.	.	.	.	.	.	2f/	.	.
!	!	!	!LO:SIC:v:t=custos G	!	!	!	!	!	!LO:SIC:v:t=custos cc	!	!
2E\	-ce	.	1G	-ye/	.	2B/	two-	.	2g\	-ie/	.
!	!	!	!LO:LB:g=original	!	!	!	!	!	!LO:LB:g=original	!	!
=18	=18	=18	=18	=18	=18	=18	=18	=18	=18	=18	=18
2C/	.	.	.	.	.	2e\	.	.	1cc	Słyſz	.
1.C	two-	.	2r	.	.	1e	-ie.	.	.	.	.
.	.	.	2G/	Słyſz	.	.	.	.	4b\	.	.
.	.	.	.	.	.	.	.	.	4a\	.	.
.	.	.	1c	płacz-	.	1.e	.	.	2g/	.	.
=19	=19	=19	=19	=19	=19	=19	=19	=19	=19	=19	=19
2AA/	-ye/	.	.	.	.	.	.	.	1a	płacz-	.
!LO:SIC:v:t=custos AA	!	!	!	!	!	!	!	!	!	!	!
1E	ſłiſz	.	1B	-li-	.	.	.	.	.	.	.
!	!	!	!	!	!	!LO:SIC:v:t=custos c	!	!	!	!	!
.	.	.	.	.	.	2e\	ſłyſz	.	2g/	.	.
!LO:LB:g=original	!	!	!	!	!	!LO:LB:g=original	!	!	!	!	!
2.AA/	płacz-	.	1A	-we	.	2.c/	płacz-	.	2f/	-li-	.
=20	=20	=20	=20	=20	=20	=20	=20	=20	=20	=20	=20
.	.	.	.	.	.	.	.	.	2.e/	-we	.
4BB/	.	.	.	.	.	4B/	.	.	.	.	.
1C	.	.	1E	pro-	.	2.G/	-li-	.	.	.	.
.	.	.	.	.	.	.	.	.	4f/	.	.
.	.	.	.	.	.	.	.	.	2.g/	proź-	.
.	.	.	.	.	.	4A/	.	.	.	.	.
2GG/	-ly-	.	1G	-źby	.	2B/	-we	.	.	.	.
.	.	.	.	.	.	.	.	.	4f/	.	.
=21	=21	=21	=21	=21	=21	=21	=21	=21	=21	=21	=21
2C/	-we	.	.	.	.	2c/	proź-	.	1e	-by	.
1D	.	.	1F	mo-	.	2A/	.	.	.	.	.
.	.	.	.	.	.	2B/	.	.	2d/	mo-	.
1.AA	proź-	.	[2E/l	-ye.	.	1c	-by	.	[2e/l	-ie.	.
=22	=22	=22	=22	=22	=22	=22	=22	=22	=22	=22	=22
.	.	.	0E_	.	.	.	.	.	0e_	.	.
.	.	.	.	.	.	2A/	mo-	.	.	.	.
2GG/	-by	.	.	.	.	2B/	.	.	.	.	.
1AA	mo-	.	.	.	.	1c	-ye.	.	.	.	.
=23	=23	=23	=23	=23	=23	=23	=23	=23	=23	=23	=23
.	.	.	0E_	.	.	.	.	.	0e_	.	.
!LO:TX:b:t=C.S.	!	!	!	!	!	!LO:TX:b:t=C.S.	!	!	!	!	!
[1.EEl [1.El	-ye.	.	.	.	.	[1.Bl	.	.	.	.	.
=24	=24	=24	=24	=24	=24	=24	=24	=24	=24	=24	=24
0EE]yy 0E]yy	.	.	0E]	.	.	0B]	.	.	0e]	.	.
==	==	==	==	==	==	==	==	==	==	==	==
*-	*-	*-	*-	*-	*-	*-	*-	*-	*-	*-	*-
!!!system-decoration: [(s1,s2,s3,s4)]
!!!RDF**kern: l = terminal long
!!!ENC: Mateusz Solarz
!!!END: 2022-04-28
!!!ENC: Natalia Wrzos
!!!END: 2022-05-10
